!!!ONB: MCCC : IFC0119_00 : Extracted Monophonic Melody
!!!COM: Chopin, Frédéric
!!!OTL: Waltzes
!!!SCT: Op.64
!!!ODT: 1846///
**kern
*thru
*staff1
*Ipiano
*>A
*clefG2
*k[]
*a:
*M3/4
*MM120
4e
=1
8a
8b
4cc
4cc
=2
8dd
8ee
2ff
=3
8b
8cc
8dd
8aa
8gg
8ff
=4
8ee
8dd
2ee
=5
8a
8b
4cc
4cc
=6
8dd
8ee
2ff
=7
8b
8cc
8dd
8aa
8gg
8b
=8
4cc
4r
4e
=9
8a
8b
4cc
4cc
=10
8dd
8ee
2ff
=11
8b
8cc
8dd
8aa
8gg
8ff
=12
8ee
8dd#
2ee
=13
8cc
8dd
4ee
4ee
=14
8ff
8gg
2aa
=15
4gg
8ff#
8gg
8ddd
8ff
=16
2.ee
=17
*>B
8ee
8ff#
8gg#
8aa
8bb
8ccc
=18
8bb
8aa
8ee
8bb
4aa
=19
8aa
8gg#
8ee
8ff
4ee
=20
8ee
8cc
8a
8b
4a
=21
12e
12g#
12b
20ee
20gg#
20bb
*8va
20eee
20ggg#
8.bbb
16cccc
=22
8bbb
8aaa
8eee
8bbb
4aaa
=23
8aaa
8ggg#
8eee
8eeee
4eeee
=24
2aaa
*X8va
4r
=25
*>B
8ee
8ff#
8gg#
8aa
8bb
8ccc
=26
8bb
8aa
8ee
8bb
4aa
=27
8aa
8gg#
8ee
8ff
4ee
=28
8ee
8cc
8a
8b
4a
=29
12e
12g#
12b
20ee
20gg#
20bb
*8va
20eee
20ggg#
8.bbb
16cccc
=30
8bbb
8aaa
8eee
8bbb
4aaa
=31
8aaa
8ggg#
8eee
8eeee
4eeee
=32
2aaa
*X8va
4r
=33
*>C
8a
8b
4cc
4cc
=34
8dd
8ee
2ff
=35
8b
8cc
8dd
8aa
8gg
8ff
=36
8ee
8dd#
2ee
=37
8cc
8dd
4ee
4ee
=38
8ff
8gg
2aa
=39
8dd#
8ee
4ff#
4ff#
=40
8gg#
8aa
2bb
=41
8bb
8ccc#
8ddd
8fff#
8eee
8ddd
=42
8ccc#
8bb
8ccc#
8gg#
8aa
8ff#
=43
8ee
8dd
8g#
8ff#
4ee
=44
8ee
8cc#
8a
8ff#
4ee
=45
8bb
8ccc#
8ddd
8fff#
8eee
8ddd
=46
8ccc#
8bb
8ccc#
8gg#
8aa
8ff#
=47
8ee
8dd
8g#
8ff#
8ee
8g#
=48
4a
4r
4e
=49
*>C
8a
8b
4cc
4cc
=50
8dd
8ee
2ff
=51
8b
8cc
8dd
8aa
8gg
8ff
=52
8ee
8dd#
2ee
=53
8cc
8dd
4ee
4ee
=54
8ff
8gg
2aa
=55
8dd#
8ee
4ff#
4ff#
=56
8gg#
8aa
2bb
=57
8bb
8ccc#
8ddd
8fff#
8eee
8ddd
=58
8ccc#
8bb
8ccc#
8gg#
8aa
8ff#
=59
8ee
8dd
8g#
8ff#
4ee
=60
8ee
8cc#
8a
8ff#
4ee
=61
8bb
8ccc#
8ddd
8fff#
8eee
8ddd
=62
8ccc#
8bb
8ccc#
8gg#
8aa
8ff#
=63
8ee
8dd
8g#
8ff#
8ee
8g#
=64
4a
4r
4e
=65
*>D
8a
8b
4cc
4cc
=66
8dd
8ee
2ff
=67
8b
8cc
8dd
8aa
8gg
8ff
=68
8ee
8dd#
2ee
=69
8a
8b
4cc
4cc
=70
8dd
8ee
2ff
=71
8b
8cc
8dd
8aa
8gg
8b
=72
4cc
4r
4e
=73
8a
8b
4cc
4cc
=74
8dd
8ee
2ff
=75
8r
8ee
8dd#
8ee
8bb
8dd
=76
2cc
4r
=77
8r
8ccc
8bb
8aa
8gg
8ff
=78
8ee
8dd
8cc#
8dd
8ee
8ff
=79
4ee
8dd#
8ee
8ff
8g#
=80
2a
4r
==
*-
